src/mimetypes/scalable/application-vnd.ms-infopath.svg

<svg width="64" height="64" version="1.1" viewBox="0 0 64 64" xmlns="http://www.w3.org/2000/svg">
 <defs>
  <filter id="a" x="-.039001" y="-.033428" width="1.078" height="1.0669" color-interpolation-filters="sRGB">
   <feGaussianBlur stdDeviation="0.20637525"/>
  </filter>
 </defs>
 <g transform="scale(3.7796)" fill-rule="evenodd">
  <path d="m3.4395 1.3543c-0.73289 0-1.3229 0.59001-1.3229 1.3229v12.171c0 0.73289 0.59001 1.3229 1.3229 1.3229h10.054c0.73289 0 1.3229-0.59001 1.3229-1.3229v-10.319l-3.175-3.175z" filter="url(#a)" opacity=".15" stroke-width=".26458" style="paint-order:stroke fill markers"/>
  <path d="m3.4395 1.0588c-0.73289 0-1.3229 0.58999-1.3229 1.3229v12.171c0 0.73286 0.59001 1.3229 1.3229 1.3229h10.054c0.73289 0 1.3229-0.58999 1.3229-1.3229v-10.319l-3.175-3.1749z" fill="#8e50c7" stroke-width=".26458" style="paint-order:stroke fill markers"/>
  <path d="m14.816 4.2332-3.1749-3.1749v1.852c0 0.73288 0.59001 1.3229 1.3229 1.3229z" fill="#fff" opacity=".35" style="paint-order:stroke fill markers"/>
 </g>
 <path d="m43.998 11v0.58399c0 3.0009 2.23 5.4162 5 5.4162h6.9998l5.37e-4 -1.0002-7.0006 1.89e-4c-2.77 7.5e-5 -5-2.23-5-5z" fill-rule="evenodd" opacity=".1" stroke-width="3.9338" style="paint-order:stroke fill markers"/>
 <path d="m38 18-4 4.5-1.26 1.5h3.26v3h-12v13h-3.238l1.238 1.5 4 4.5 4-4.5 1.26-1.5h-3.26v-3h12v-13h3.238l-1.238-1.5zm-10 13h8v2h-8z" color="#4d4d4d" color-rendering="auto" fill="#fff" image-rendering="auto" opacity=".75" shape-rendering="auto" solid-color="#000000" style="isolation:auto;mix-blend-mode:normal"/>
</svg>

<svg width="64" height="64" xmlns="http://www.w3.org/2000/svg"><defs><filter id="a" x="-.039" y="-.033" width="1.078" height="1.067" color-interpolation-filters="sRGB"><feGaussianBlur stdDeviation=".206"/></filter></defs><g fill-rule="evenodd"><path d="M3.44 1.354a1.32 1.32 0 0 0-1.323 1.323v12.171c0 .733.59 1.323 1.323 1.323h10.053a1.32 1.32 0 0 0 1.323-1.323V4.53l-3.175-3.175z" filter="url(#a)" opacity=".15" style="paint-order:stroke fill markers" transform="scale(3.7796)"/><path d="M3.44 1.059a1.32 1.32 0 0 0-1.323 1.323v12.17c0 .734.59 1.324 1.323 1.324h10.053a1.32 1.32 0 0 0 1.323-1.323V4.233L11.641 1.06z" fill="#8e50c7" style="paint-order:stroke fill markers" transform="scale(3.7796)"/><path d="m14.816 4.233-3.175-3.175V2.91c0 .733.59 1.323 1.323 1.323z" fill="#fff" opacity=".35" style="paint-order:stroke fill markers" transform="scale(3.7796)"/></g><path d="M43.998 11v.584c0 3 2.23 5.416 5 5.416h7v-1h-7c-2.77 0-5-2.23-5-5z" fill-rule="evenodd" opacity=".1" style="paint-order:stroke fill markers"/><path d="m38 18-4 4.5-1.26 1.5H36v3H24v13h-3.238L22 41.5l4 4.5 4-4.5 1.26-1.5H28v-3h12V24h3.238L42 22.5zM28 31h8v2h-8z" color="#4d4d4d" fill="#fff" opacity=".75" style="isolation:auto;mix-blend-mode:normal"/></svg>
